svg/ceiling_light_multiple.svg

<svg xmlns="http://www.w3.org/2000/svg" viewBox="0 0 24 24"><path d="M10 11h3V6h2v5h3l4 8H6zm6 9c0 1.11-.89 2-2 2s-2-.89-2-2zm-7.79-9.89L8.76 9H11V2H9v5H6l-4 8h3.76z"/></svg>

<svg xmlns="http://www.w3.org/2000/svg" id="mdi-ceiling-light-multiple" viewBox="0 0 24 24"><path d="M10 11H13V6H15V11H18L22 19H6L10 11M16 20C16 21.11 15.11 22 14 22S12 21.11 12 20H16M8.21 10.11L8.76 9H11V2H9V7H6L2 15H5.76L8.21 10.11Z" /></svg>
